img/svg/dots.svg

<svg width="48" height="48" viewBox="0 0 48 48" xmlns="http://www.w3.org/2000/svg">
    <path
        d="M48 23.6554C48 30.0141 46.9344 35.1719 45.6194 35.1719C44.3045 35.1719 43.2393 30.0154 43.2393 23.6554C43.2393 17.2954 44.3049 12.1389 45.6194 12.1389C46.9339 12.1389 48 17.2949 48 23.6554Z"
        />
    <path
        d="M41.9256 23.6554C41.9256 30.7541 38.8951 36.5109 35.1568 36.5109C31.4184 36.5109 28.3879 30.7541 28.3879 23.6554C28.3879 16.5568 31.418 10.7999 35.1563 10.7999C38.8947 10.7999 41.9252 16.555 41.9252 23.6554"
        />
    <path
        d="M27.0749 23.6554C27.0749 31.1968 21.0139 37.3103 13.5377 37.3103C6.06146 37.3103 0 31.1955 0 23.6554C0 16.1153 6.061 10 13.5377 10C21.0143 10 27.0749 16.114 27.0749 23.6554Z"
        />
</svg>

<svg width="48" height="48" viewBox="0 0 48 48" xmlns="http://www.w3.org/2000/svg"><path d="M48 23.655c0 6.36-1.066 11.517-2.38 11.517-1.316 0-2.38-5.157-2.38-11.517 0-6.36 1.065-11.516 2.38-11.516 1.314 0 2.38 5.156 2.38 11.516zm-6.074 0c0 7.1-3.03 12.856-6.77 12.856-3.738 0-6.768-5.757-6.768-12.856 0-7.098 3.03-12.855 6.768-12.855 3.739 0 6.77 5.755 6.77 12.855m-14.851 0c0 7.542-6.061 13.655-13.537 13.655C6.06 37.31 0 31.195 0 23.655 0 16.115 6.061 10 13.538 10c7.476 0 13.537 6.114 13.537 13.655z"/></svg>
